packages/core/src/svgs/dose.svg

<svg width="24" height="24" viewBox="0 0 24 24" fill="none" xmlns="http://www.w3.org/2000/svg">
<g clip-path="url(#clip0_31_9472)">
<path d="M0 0H24V24H0V0Z" fill="#F0F3FA"/>
<path fill-rule="evenodd" clip-rule="evenodd" d="M12.5272 5.14307H7.74007C7.56503 5.14586 7.39225 5.1831 7.23161 5.25268C7.07097 5.32225 6.9256 5.42279 6.80382 5.54855C6.68204 5.67432 6.58623 5.82284 6.52185 5.98563C6.45748 6.14843 6.42581 6.32231 6.42864 6.49735V17.5245C6.42748 17.8746 6.5646 18.2111 6.81018 18.4607C7.05576 18.7103 7.38995 18.8528 7.74007 18.8574H12.5272C16.2558 18.8574 19.2858 15.7631 19.2858 12.0002C19.2858 8.21592 16.2344 5.14307 12.5272 5.14307ZM12.4286 16.2859C13.5653 16.2859 14.6554 15.8344 15.4591 15.0307C16.2628 14.2269 16.7144 13.1369 16.7144 12.0002C16.7144 10.8636 16.2628 9.77348 15.4591 8.96975C14.6554 8.16602 13.5653 7.7145 12.4286 7.7145C11.292 7.7145 10.2019 8.16602 9.39818 8.96975C8.59446 9.77348 8.14293 10.8636 8.14293 12.0002C8.14293 13.1369 8.59446 14.2269 9.39818 15.0307C10.2019 15.8344 11.292 16.2859 12.4286 16.2859Z" fill="#131519"/>
<path d="M12.4285 14.1427C13.6199 14.1427 14.5714 13.247 14.5714 12.1199C14.5714 10.997 13.5256 10.307 12.7199 9.54845C12.6422 9.47203 12.5375 9.4292 12.4285 9.4292C12.3195 9.4292 12.2148 9.47203 12.1371 9.54845C11.3314 10.307 10.2856 10.9713 10.2856 12.1199C10.2856 13.247 11.2585 14.1427 12.4285 14.1427Z" fill="#FF7A15"/>
</g>
<defs>
<clipPath id="clip0_31_9472">
<rect width="24" height="24" fill="white"/>
</clipPath>
</defs>
</svg>

<svg xmlns="http://www.w3.org/2000/svg" width="24" height="24" fill="none" viewBox="0 0 24 24"><g clip-path="url(#a)"><path fill="#F0F3FA" d="M0 0h24v24H0z"/><path fill="#131519" fill-rule="evenodd" d="M12.527 5.143H7.74A1.333 1.333 0 0 0 6.43 6.497v11.028a1.33 1.33 0 0 0 1.311 1.332h4.787c3.729 0 6.759-3.094 6.759-6.857 0-3.784-3.052-6.857-6.759-6.857m-.098 11.143a4.286 4.286 0 1 0 0-8.572 4.286 4.286 0 0 0 0 8.572" clip-rule="evenodd"/><path fill="#FF7A15" d="M12.429 14.143c1.19 0 2.142-.896 2.142-2.023 0-1.123-1.045-1.813-1.851-2.572a.416.416 0 0 0-.583 0c-.806.759-1.851 1.423-1.851 2.572 0 1.127.973 2.023 2.143 2.023"/></g><defs><clipPath id="a"><path fill="#fff" d="M0 0h24v24H0z"/></clipPath></defs></svg>
